X:1
L:1/8
Q:1/4=120
M:4/4
K:F
 F2 FF A2 G2 | F,FCF, F2 F2 | G2 GA B2 A2 | GG G4 | G2 GA B2 AG | FGAF G2 C2 | F2 FG A2 G2 | 
 F,FCF, F4 |]
